dist/images/logo-ebay.svg

<svg width="88" height="36" viewBox="0 0 88 36" fill="none" xmlns="http://www.w3.org/2000/svg">
<path d="M11.8849 8.14526C5.76195 8.14526 0.659668 10.713 0.659668 18.4607C0.659668 24.5985 4.09063 28.4635 12.0427 28.4635C21.403 28.4635 22.0029 22.368 22.0029 22.368H17.4676C17.4676 22.368 16.4953 25.6502 11.7662 25.6502C7.91452 25.6502 5.14433 23.0779 5.14433 19.4729H22.4775V17.2103C22.4775 13.6436 20.1871 8.14526 11.8849 8.14526ZM11.7265 11.0367C15.3929 11.0367 17.8924 13.2572 17.8924 16.5851H5.24452C5.24452 13.0519 8.50725 11.0367 11.7265 11.0367Z" fill="#E53238"/>
<path d="M22.4761 0.642578V24.5725C22.4761 25.9307 22.3779 27.838 22.3779 27.838H26.7036C26.7036 27.838 26.8591 26.4683 26.8591 25.2163C26.8591 25.2163 28.9963 28.5219 34.8078 28.5219C40.9273 28.5219 45.0841 24.3214 45.0841 18.3041C45.0841 12.7059 41.266 8.20338 34.8176 8.20338C28.7792 8.20338 26.9028 11.4269 26.9028 11.4269V0.642578H22.4761ZM33.7011 11.1632C37.8568 11.1632 40.4996 14.2124 40.4996 18.3041C40.4996 22.6918 37.4474 25.562 33.7309 25.562C29.2955 25.562 26.9028 22.1382 26.9028 18.343C26.9028 14.8067 29.0496 11.1632 33.7011 11.1632Z" fill="#0064D2"/>
<path d="M55.8329 8.14526C46.6215 8.14526 46.0308 13.1312 46.0308 13.9281H50.6156C50.6156 13.9281 50.856 11.0172 55.5167 11.0172C58.5452 11.0172 60.892 12.3878 60.892 15.0222V15.96H55.5167C48.3806 15.96 44.6079 18.0239 44.6079 22.212C44.6079 26.3335 48.0936 28.576 52.8044 28.576C59.2245 28.576 61.2925 25.0691 61.2925 25.0691C61.2925 26.464 61.4011 27.8386 61.4011 27.8386H65.4769C65.4769 27.8386 65.3191 26.1348 65.3191 25.0448V15.6231C65.3191 9.44514 60.2785 8.14526 55.8329 8.14526ZM60.892 18.7733V20.0236C60.892 21.6544 59.8739 25.7089 53.8813 25.7089C50.5997 25.7089 49.1928 24.0898 49.1928 22.2117C49.1928 18.7953 53.9308 18.7733 60.892 18.7733Z" fill="#F5AF02"/>
<path d="M62.8491 8.92749H68.007L75.4095 23.5888L82.795 8.92749H87.4675L74.015 35.0292H69.1137L72.9955 27.7529L62.8491 8.92749Z" fill="#86B817"/>
</svg>

<svg width="88" height="36" viewBox="0 0 88 36" fill="none" xmlns="http://www.w3.org/2000/svg"><path d="M11.885 8.145C5.762 8.145.66 10.713.66 18.461c0 6.138 3.43 10.003 11.383 10.003 9.36 0 9.96-6.096 9.96-6.096h-4.535s-.973 3.282-5.702 3.282c-3.851 0-6.622-2.572-6.622-6.177h17.334V17.21c0-3.566-2.29-9.065-10.593-9.065zm-.159 2.892c3.667 0 6.166 2.22 6.166 5.548H5.245c0-3.533 3.262-5.548 6.481-5.548z" fill="#E53238"/><path d="M22.476.643v23.93c0 1.358-.098 3.265-.098 3.265h4.326s.155-1.37.155-2.622c0 0 2.137 3.306 7.949 3.306 6.12 0 10.276-4.2 10.276-10.218 0-5.598-3.818-10.1-10.266-10.1-6.039 0-7.915 3.223-7.915 3.223V.643h-4.427zm11.225 10.52c4.156 0 6.799 3.05 6.799 7.141 0 4.388-3.053 7.258-6.77 7.258-4.434 0-6.827-3.424-6.827-7.219 0-3.536 2.147-7.18 6.798-7.18z" fill="#0064D2"/><path d="M55.833 8.145c-9.212 0-9.802 4.986-9.802 5.783h4.585s.24-2.91 4.9-2.91c3.03 0 5.376 1.37 5.376 4.004v.938h-5.375c-7.136 0-10.91 2.064-10.91 6.252 0 4.122 3.487 6.364 8.197 6.364 6.42 0 8.488-3.507 8.488-3.507 0 1.395.11 2.77.11 2.77h4.075s-.158-1.704-.158-2.794v-9.422c0-6.178-5.04-7.478-9.486-7.478zm5.059 10.628v1.25c0 1.631-1.018 5.686-7.01 5.686-3.282 0-4.69-1.62-4.69-3.497 0-3.417 4.739-3.439 11.7-3.439z" fill="#F5AF02"/><path d="M62.85 8.927h5.157l7.402 14.662 7.386-14.662h4.672L74.016 35.03h-4.901l3.882-7.276L62.849 8.927z" fill="#86B817"/></svg>
